X:1
T:Highland Dance [2]
L:1/8
M:4/4
I:linebreak $
K:D
V:1 treble 
V:1
 e | A>A e2 cAAc | dBcA BGB | A<Ae>A cAeA | d>G B/B/B e2 A :: c | A<A a2 c<cac |$ g2 eg BcdB | %8
 a>eea c<ce>c | g2 d>B e2 A :| %10
